assets/efishery/petugas-lab.svg

<svg width="24" height="25" viewBox="0 0 24 25" fill="none" xmlns="http://www.w3.org/2000/svg">
<path fill-rule="evenodd" clip-rule="evenodd" d="M7.75 6.77344H8V9.02344C8 11.0945 9.67893 12.7734 11.75 12.7734C13.8211 12.7734 15.5 11.0945 15.5 9.02344V6.77344H15.75C16.1642 6.77344 16.5 6.43765 16.5 6.02344C16.5 3.40008 14.3734 1.27344 11.75 1.27344C9.12665 1.27344 7 3.40008 7 6.02344C7 6.43765 7.33579 6.77344 7.75 6.77344ZM8.58697 5.27344H14.913C14.5745 3.84009 13.2868 2.77344 11.75 2.77344C10.2132 2.77344 8.92555 3.84009 8.58697 5.27344ZM14 8.27344V6.77344H9.5V8.27344H14ZM13.872 9.77344C13.5631 10.6473 12.7297 11.2734 11.75 11.2734C10.7703 11.2734 9.93691 10.6473 9.62803 9.77344H13.872Z" fill="#1D1D1D"/>
<path d="M5.5 16.0234C5.5 14.7808 6.50736 13.7734 7.75 13.7734H7.83612C7.99495 13.9972 8.23417 14.2906 8.56423 14.584C9.23457 15.1799 10.2804 15.7734 11.75 15.7734C13.2196 15.7734 14.2654 15.1799 14.9358 14.584C15.2658 14.2906 15.505 13.9972 15.6639 13.7734H15.75C16.9926 13.7734 18 14.7808 18 16.0234V16.5234C18 16.9377 18.3358 17.2734 18.75 17.2734C19.1642 17.2734 19.5 16.9377 19.5 16.5234V16.0234C19.5 13.9524 17.8211 12.2734 15.75 12.2734H15.25C14.9677 12.2734 14.7094 12.432 14.5815 12.6834L14.5787 12.6887C14.5748 12.6958 14.5673 12.7094 14.556 12.7286C14.5333 12.7671 14.4958 12.8274 14.4427 12.9024C14.3359 13.0532 14.1697 13.258 13.9392 13.4629C13.4846 13.867 12.7804 14.2734 11.75 14.2734C10.7196 14.2734 10.0154 13.867 9.56077 13.4629C9.33029 13.258 9.16414 13.0532 9.05733 12.9024C9.00421 12.8274 8.96668 12.7671 8.94401 12.7286C8.93269 12.7094 8.92516 12.6958 8.92131 12.6887L8.91849 12.6834C8.79062 12.432 8.53235 12.2734 8.25 12.2734H7.75C5.67893 12.2734 4 13.9524 4 16.0234V20.0234C4 20.4377 4.33579 20.7734 4.75 20.7734H11.25C11.6642 20.7734 12 20.4377 12 20.0234C12 19.6092 11.6642 19.2734 11.25 19.2734H5.5V16.0234Z" fill="#1D1D1D"/>
<path fill-rule="evenodd" clip-rule="evenodd" d="M14 16.0234C14 15.6092 14.3358 15.2734 14.75 15.2734H16.75C17.1642 15.2734 17.5 15.6092 17.5 16.0234C17.5 16.4377 17.1642 16.7734 16.75 16.7734V17.4092C17.9831 17.7488 19 18.7032 19 20.0234C19 21.6897 17.3801 22.7734 15.75 22.7734C14.1199 22.7734 12.5 21.6897 12.5 20.0234C12.5 18.7032 13.5169 17.7488 14.75 17.4092V16.7734C14.3358 16.7734 14 16.4377 14 16.0234ZM14.2743 19.367C14.2812 19.3668 14.2882 19.3666 14.2952 19.3663C14.684 19.3545 15.1136 19.3962 15.4738 19.5763C15.9629 19.8208 16.212 19.8771 16.418 19.8428C16.6015 19.8122 16.836 19.6947 17.2102 19.3494C16.9235 19.0283 16.4291 18.7734 15.75 18.7734C15.0585 18.7734 14.5585 19.0376 14.2743 19.367ZM17.3466 20.5157C17.0995 20.6764 16.8493 20.7847 16.5824 20.8292C16.0384 20.9198 15.5375 20.7261 15.0266 20.4707C14.8808 20.3978 14.6437 20.3562 14.3257 20.3659C14.2461 20.3683 14.1646 20.3738 14.0822 20.382C14.2849 20.834 14.8582 21.2734 15.75 21.2734C16.5533 21.2734 17.0982 20.9169 17.3466 20.5157Z" fill="#1D1D1D"/>
</svg>

<svg viewBox="0 0 24 25" xmlns="http://www.w3.org/2000/svg">
  <path fill-rule="evenodd" clip-rule="evenodd" d="M7.75 6.773H8v2.25a3.75 3.75 0 0 0 7.5 0v-2.25h.25a.75.75 0 0 0 .75-.75 4.75 4.75 0 1 0-9.5 0c0 .415.336.75.75.75zm.837-1.5h6.326a3.251 3.251 0 0 0-6.326 0zm5.413 3v-1.5H9.5v1.5H14zm-.128 1.5a2.251 2.251 0 0 1-4.244 0h4.244z"/>
  <path d="M5.5 16.023a2.25 2.25 0 0 1 2.25-2.25h.086c.159.224.398.518.728.811.67.596 1.716 1.19 3.186 1.19s2.515-.594 3.186-1.19c.33-.293.569-.587.728-.81h.086a2.25 2.25 0 0 1 2.25 2.25v.5a.75.75 0 1 0 1.5 0v-.5a3.75 3.75 0 0 0-3.75-3.75h-.5a.75.75 0 0 0-.668.41l-.003.005-.023.04a3.347 3.347 0 0 1-.617.734c-.454.404-1.159.81-2.189.81s-1.735-.406-2.19-.81a3.348 3.348 0 0 1-.616-.734 1.305 1.305 0 0 1-.023-.04l-.003-.006a.75.75 0 0 0-.668-.41h-.5A3.75 3.75 0 0 0 4 16.023v4c0 .415.336.75.75.75h6.5a.75.75 0 1 0 0-1.5H5.5v-3.25z"/>
  <path fill-rule="evenodd" clip-rule="evenodd" d="M14 16.023a.75.75 0 0 1 .75-.75h2a.75.75 0 0 1 0 1.5v.636c1.233.34 2.25 1.294 2.25 2.614 0 1.667-1.62 2.75-3.25 2.75s-3.25-1.083-3.25-2.75c0-1.32 1.017-2.274 2.25-2.614v-.636a.75.75 0 0 1-.75-.75zm.274 3.344h.021c.389-.012.819.03 1.179.21.489.244.738.3.944.266.184-.03.418-.148.792-.494-.287-.32-.78-.576-1.46-.576-.691 0-1.191.265-1.476.594zm3.073 1.149c-.248.16-.498.269-.765.313-.544.09-1.045-.103-1.555-.358-.146-.073-.383-.115-.701-.105-.08.002-.161.008-.244.016.203.452.776.891 1.668.891.803 0 1.348-.356 1.597-.757z"/>
</svg>
